X: 3878
T: Black Rogue, The
R: jig
M: 6/8
K: Dmajor
d|{d}c.A.A {d}BGB|c.A.A {c}A{g}.ed|c.A.e {c}BGd|{B}AF{A}D ~D3|
{d}c.A.A {d}BGB|c{g}ed {B}AF{A}D|~G3 {c}BGd|{B}AF{A}D ~D3
{d}c2A {d}BGB|c.A.A {c}A{g}.ed|c.A.e {c}BGd|{B}AF{B}A D(3.F.G.A|
c{e}ec {d}BGB|c(3.g.fd {B}AF{A}D|~G3 {B}AGd|{B}AF{B}A D3
|~f3 {a}g.f.g|a.fd c.B.A|A(3.g.f.A .f{a}g{f}g|af{b}a d(3.e.f.g|
a.g.f {a}g.f.e|(3.g.f.ed (3e.f.ed|c.A.e {c}BGd|{B}AF{B}A D.F.A|
f.A.A d(3e.f.g|a.fd c.B.A|A.f.A .f{a}g{f}g|af{b}a d(3.e.f.g|
a.g.f {a}g.f.e|(3.g.f.ed (3e.f.ed|cAe {c}BGd|{B}AF{A}D ~D3:|

